assets/icons/qvision/railway_alert.svg

<svg width="24" height="24" viewBox="0 0 24 24" fill="none" xmlns="http://www.w3.org/2000/svg">
<g clip-path="url(#clip0_147_5600)">
<path d="M23 7.99999C23.0001 6.61545 22.5896 5.26197 21.8204 4.11073C21.0513 2.9595 19.958 2.06221 18.6789 1.53236C17.3997 1.0025 15.9922 0.863877 14.6342 1.13402C13.2763 1.40415 12.029 2.07092 11.05 3.04999C10.3673 3.01259 9.68368 2.99592 9 2.99999C4.58 2.99999 1 3.49999 1 6.99999V17.5C1 18.4282 1.36875 19.3185 2.02513 19.9749C2.6815 20.6312 3.57174 21 4.5 21L3 22.5V23H15V22.5L13.5 21C14.4283 21 15.3185 20.6312 15.9749 19.9749C16.6313 19.3185 17 18.4282 17 17.5V14.92C18.6646 14.6797 20.187 13.8482 21.2888 12.5775C22.3906 11.3068 22.998 9.68184 23 7.99999ZM3 12V6.99999H9.08C8.82133 8.75615 9.24345 10.5448 10.26 12H3ZM9 19C7.9 19 7 18.1 7 17C7 15.9 7.9 15 9 15C10.1 15 11 15.9 11 17C11 18.1 10.1 19 9 19ZM16.71 12.94L16.51 12.97L16 13L15.53 12.98L15.37 12.96L15.08 12.92L14.88 12.88L14.66 12.82C14.5816 12.8026 14.5047 12.7792 14.43 12.75L14.3 12.7C13.1701 12.2938 12.2245 11.4939 11.6367 10.4469C11.0489 9.39993 10.8584 8.17612 11.1 6.99999C11.14 6.80999 11.19 6.62999 11.25 6.45999L11.3 6.31999L11.45 5.93999L11.52 5.78999L11.72 5.42999L11.79 5.30999L12.09 4.88999L12.11 4.86999C12.35 4.56999 12.63 4.29999 12.93 4.05999L12.94 4.04999L13.4 3.72999L13.43 3.70999C14.2113 3.25611 15.0965 3.01155 16 2.99999C17.254 3.01503 18.4565 3.50074 19.3692 4.36081C20.2818 5.22089 20.838 6.39252 20.9273 7.64339C21.0167 8.89427 20.6327 10.1331 19.8516 11.1141C19.0704 12.0952 17.9491 12.7469 16.71 12.94ZM15 3.99999H17V8.99999H15V3.99999ZM15 9.99999H17V12H15V9.99999Z" fill="#323232"/>
</g>
<defs>
<clipPath id="clip0_147_5600">
<rect width="24" height="24" fill="white"/>
</clipPath>
</defs>
</svg>

<svg xmlns="http://www.w3.org/2000/svg" height="24" viewBox="0 0 24 24" width="24"><path d="M0 0h24v24H0V0z" fill="none"/><path d="M23 8a7 7 0 0 0-11.95-4.95A33.8 33.8 0 0 0 9 3c-4.42 0-8 .5-8 4v10.5A3.5 3.5 0 0 0 4.5 21L3 22.5v.5h12v-.5L13.5 21a3.5 3.5 0 0 0 3.5-3.5v-2.58A7 7 0 0 0 23 8zM3 12V7h6.08a6.96 6.96 0 0 0 1.18 5H3zm6 7c-1.1 0-2-.9-2-2s.9-2 2-2 2 .9 2 2-.9 2-2 2zm7.71-6.06l-.2.03L16 13l-.47-.02-.16-.02-.29-.04-.2-.04-.22-.06a1.55 1.55 0 0 1-.23-.07l-.13-.05A4.99 4.99 0 0 1 11.1 7c.04-.19.09-.37.15-.54l.05-.14.15-.38.07-.15.2-.36.07-.12.3-.42.02-.02c.24-.3.52-.57.82-.81l.01-.01.46-.32.03-.02A5.25 5.25 0 0 1 16 3a5 5 0 0 1 .71 9.94zM15 4h2v5h-2zm0 6h2v2h-2z"/></svg>
